assets/Radio/Flat/radio_flat.svg

<svg width="32" height="32" viewBox="0 0 32 32" fill="none" xmlns="http://www.w3.org/2000/svg">
<path d="M5 27.99C5 28.75 5.61 29.36 6.37 29.36C7.13 29.36 7.74 28.75 7.74 27.99V26.62H5V27.99ZM24.15 27.99C24.15 28.75 24.76 29.36 25.52 29.36C26.27 29.36 26.89 28.75 26.89 27.99V26.62H24.15V27.99Z" fill="#212121"/>
<path d="M27 5C27 5.55228 26.5523 6 26 6C25.7251 6 25.4761 5.88908 25.2954 5.70956L7.9667 9.12058L7.77356 8.1394L25.0336 4.74189C25.1474 4.3147 25.537 4 26 4C26.5523 4 27 4.44772 27 5Z" fill="#9B9B9B"/>
<path d="M6.84005 11.85C7.96671 11.85 8.88005 10.9367 8.88005 9.81002C8.88005 8.68336 7.96671 7.77002 6.84005 7.77002C5.71338 7.77002 4.80005 8.68336 4.80005 9.81002C4.80005 10.9367 5.71338 11.85 6.84005 11.85Z" fill="#D3D3D3"/>
<path d="M27.38 9.81006H4.63C3.18 9.81006 2 10.9901 2 12.4401V24.6901C2 26.1401 3.18 27.3201 4.63 27.3201H27.38C28.83 27.3201 30.01 26.1401 30.01 24.6901V12.4301C30 10.9801 28.83 9.81006 27.38 9.81006Z" fill="#9B9B9B"/>
<path d="M26.32 12.76H18.45C17.79 12.76 17.25 13.3 17.25 13.96V18.79C17.25 19.45 17.79 19.99 18.45 19.99H26.32C26.98 19.99 27.52 19.45 27.52 18.79V13.96C27.52 13.3 26.98 12.76 26.32 12.76Z" fill="#83CBFF"/>
<path d="M19.88 15.83C19.44 15.83 19.09 16.19 19.09 16.62V19.98H20.68V16.62C20.67 16.19 20.32 15.83 19.88 15.83Z" fill="#F8312F"/>
<path d="M14.83 14.12C15.2 14.12 15.51 13.82 15.51 13.44C15.51 13.07 15.21 12.76 14.83 12.76H5.18C4.81 12.76 4.5 13.06 4.5 13.44C4.5 13.81 4.8 14.12 5.18 14.12H14.83ZM15.51 15.96C15.51 16.34 15.2 16.64 14.83 16.64H5.18C4.8 16.64 4.5 16.33 4.5 15.96C4.5 15.58 4.81 15.28 5.18 15.28H14.83C15.21 15.27 15.51 15.58 15.51 15.96ZM14.83 19.15C15.2 19.15 15.51 18.85 15.51 18.47C15.51 18.1 15.21 17.79 14.83 17.79H5.18C4.81 17.79 4.5 18.09 4.5 18.47C4.5 18.84 4.8 19.15 5.18 19.15H14.83ZM15.51 20.9901C15.51 21.3701 15.2 21.6701 14.83 21.6701H5.18C4.8 21.6701 4.5 21.3601 4.5 20.9901C4.5 20.6101 4.81 20.3101 5.18 20.3101H14.83C15.21 20.3 15.51 20.6101 15.51 20.9901ZM15.51 23.5001C15.51 23.8801 15.2 24.1801 14.83 24.1801H5.18C4.8 24.1801 4.5 23.8701 4.5 23.5001C4.5 23.1201 4.81 22.8201 5.18 22.8201H14.83C15.21 22.8201 15.51 23.1301 15.51 23.5001Z" fill="#212121"/>
<path d="M21.04 22.9199C21.04 23.6103 20.4804 24.1699 19.79 24.1699C19.0997 24.1699 18.54 23.6103 18.54 22.9199C18.54 22.2296 19.0997 21.6699 19.79 21.6699C20.4804 21.6699 21.04 22.2296 21.04 22.9199ZM26.6201 22.9199C26.6201 23.6103 26.0605 24.1699 25.3701 24.1699C24.6798 24.1699 24.1201 23.6103 24.1201 22.9199C24.1201 22.2296 24.6798 21.6699 25.3701 21.6699C26.0605 21.6699 26.6201 22.2296 26.6201 22.9199Z" fill="#F4F4F4"/>
</svg>

<svg xmlns="http://www.w3.org/2000/svg" width="32" height="32" fill="none"><path fill="#212121" d="M5 27.99c0 .76.61 1.37 1.37 1.37.76 0 1.37-.61 1.37-1.37v-1.37H5v1.37Zm19.15 0c0 .76.61 1.37 1.37 1.37.75 0 1.37-.61 1.37-1.37v-1.37h-2.74v1.37Z"/><path fill="#9B9B9B" d="M27 5a1 1 0 0 1-1.705.71L7.967 9.12l-.193-.98 17.26-3.398A1 1 0 0 1 27 5Z"/><path fill="#D3D3D3" d="M6.84 11.85a2.04 2.04 0 1 0 0-4.08 2.04 2.04 0 0 0 0 4.08Z"/><path fill="#9B9B9B" d="M27.38 9.81H4.63C3.18 9.81 2 10.99 2 12.44v12.25c0 1.45 1.18 2.63 2.63 2.63h22.75c1.45 0 2.63-1.18 2.63-2.63V12.43a2.631 2.631 0 0 0-2.63-2.62Z"/><path fill="#83CBFF" d="M26.32 12.76h-7.87c-.66 0-1.2.54-1.2 1.2v4.83c0 .66.54 1.2 1.2 1.2h7.87c.66 0 1.2-.54 1.2-1.2v-4.83c0-.66-.54-1.2-1.2-1.2Z"/><path fill="#F8312F" d="M19.88 15.83c-.44 0-.79.36-.79.79v3.36h1.59v-3.36a.807.807 0 0 0-.8-.79Z"/><path fill="#212121" d="M14.83 14.12a.68.68 0 0 0 0-1.36H5.18a.68.68 0 0 0 0 1.36h9.65Zm.68 1.84c0 .38-.31.68-.68.68H5.18a.68.68 0 0 1 0-1.36h9.65c.38-.01.68.3.68.68Zm-.68 3.19a.68.68 0 0 0 0-1.36H5.18a.68.68 0 0 0 0 1.36h9.65Zm.68 1.84c0 .38-.31.68-.68.68H5.18a.68.68 0 0 1 0-1.36h9.65c.38-.01.68.3.68.68Zm0 2.51c0 .38-.31.68-.68.68H5.18a.68.68 0 0 1 0-1.36h9.65c.38 0 .68.31.68.68Z"/><path fill="#F4F4F4" d="M21.04 22.92a1.25 1.25 0 1 1-2.5 0 1.25 1.25 0 0 1 2.5 0Zm5.58 0a1.25 1.25 0 1 1-2.5 0 1.25 1.25 0 0 1 2.5 0Z"/></svg>
